packages/icons/raw/imported/ChatStatsChat.svg

<svg width="32" height="32" viewBox="0 0 32 32" fill="none" xmlns="http://www.w3.org/2000/svg">
<path d="M15.9696 25.5V25V25.5ZM25.5 15.952H26H25.5ZM25.5 25.5V26C25.6633 26 25.8163 25.9202 25.9099 25.7864C26.0034 25.6525 26.0257 25.4813 25.9695 25.328L25.5 25.5ZM23.9167 21.1786L23.5009 20.9008C23.4122 21.0335 23.3923 21.2007 23.4472 21.3506L23.9167 21.1786ZM17.6111 19.1667C17.6111 19.4428 17.835 19.6667 18.1111 19.6667C18.3873 19.6667 18.6111 19.4428 18.6111 19.1667H17.6111ZM18.6111 12.8333C18.6111 12.5572 18.3873 12.3333 18.1111 12.3333C17.835 12.3333 17.6111 12.5572 17.6111 12.8333H18.6111ZM13.3889 19.1667C13.3889 19.4428 13.6127 19.6667 13.8889 19.6667C14.165 19.6667 14.3889 19.4428 14.3889 19.1667H13.3889ZM14.3889 16C14.3889 15.7239 14.165 15.5 13.8889 15.5C13.6127 15.5 13.3889 15.7239 13.3889 16H14.3889ZM26 15.952C26 10.4533 21.5205 6 16 6V7C20.973 7 25 11.0103 25 15.952H26ZM16 6C10.4795 6 6 10.4533 6 15.952H7C7 11.0103 11.027 7 16 7V6ZM6 15.952C6 21.442 10.4405 26 15.9696 26V25C11.0053 25 7 20.9023 7 15.952H6ZM24.3324 21.4564C25.386 19.8798 26 17.9866 26 15.952H25C25 17.7824 24.4482 19.4833 23.5009 20.9008L24.3324 21.4564ZM25.9695 25.328L24.3861 21.0066L23.4472 21.3506L25.0305 25.672L25.9695 25.328ZM15.9696 26H25.5V25H15.9696V26ZM18.6111 19.1667V12.8333H17.6111V19.1667H18.6111ZM14.3889 19.1667V16H13.3889V19.1667H14.3889Z" fill="black"/>
</svg>

<svg width="32" height="32" fill="none" xmlns="http://www.w3.org/2000/svg"><path d="M15.97 25.5V25v.5Zm9.53-9.548h.5-.5Zm0 9.548v.5a.5.5 0 0 0 .47-.672l-.47.172Zm-1.583-4.321L23.5 20.9a.5.5 0 0 0-.054.45l.47-.172Zm-6.306-2.012a.5.5 0 0 0 1 0h-1Zm1-6.334a.5.5 0 1 0-1 0h1Zm-5.222 6.334a.5.5 0 1 0 1 0h-1Zm1-3.167a.5.5 0 0 0-1 0h1ZM26 15.952C26 10.453 21.52 6 16 6v1c4.973 0 9 4.01 9 8.952h1ZM16 6c-5.52 0-10 4.453-10 9.952h1C7 11.01 11.027 7 16 7V6ZM6 15.952C6 21.442 10.44 26 15.97 26v-1C11.005 25 7 20.902 7 15.952H6Zm18.332 5.504A9.874 9.874 0 0 0 26 15.952h-1c0 1.83-.552 3.531-1.5 4.949l.832.555Zm1.637 3.872-1.583-4.321-.939.344 1.584 4.321.939-.344Zm-10 .672H25.5v-1h-9.53v1Zm2.642-6.833v-6.334h-1v6.334h1Zm-4.222 0V16h-1v3.167h1Z" fill="#000"/></svg>
